usr/share/icons/biglinux-icons-material/24/actions/format-font-size-less.svg

<svg xmlns="http://www.w3.org/2000/svg" viewBox="0 0 24 24">
  <defs id="defs3051">
    <style type="text/css" id="current-color-scheme">
      .ColorScheme-Text {
        color:#363636;
      }
      </style>
  </defs>
 <path style="fill:currentColor;fill-opacity:1;stroke:none" 
     d="M 9.2167969 4 L 4 18 L 5.6875 18 L 7.3554688 13.570312 L 12.917969 13.570312 L 13.066406 14 L 14.732422 14 L 11.210938 4 L 9.2167969 4 z M 10.232422 5.6113281 L 12.361328 12.285156 L 7.8730469 12.285156 L 10.232422 5.6113281 z M 16 13.792969 L 16 18.085938 L 13.707031 15.792969 L 13 16.5 L 16.292969 19.792969 L 16.5 20 L 16.707031 19.792969 L 20 16.5 L 19.292969 15.792969 L 17 18.085938 L 17 13.792969 L 16 13.792969 z "
     class="ColorScheme-Text"
     />
</svg>

<svg xmlns="http://www.w3.org/2000/svg" viewBox="0 0 24 24"><path d="M9.217 4 4 18h1.688l1.667-4.43h5.563l.148.43h1.666L11.211 4H9.217zm1.015 1.611 2.13 6.674H7.872l2.36-6.674zM16 13.793v4.293l-2.293-2.293L13 16.5l3.293 3.293.207.207.207-.207L20 16.5l-.707-.707L17 18.086v-4.293h-1z" style="fill:currentColor;fill-opacity:1;stroke:none;color:#dedede"/></svg>
